public/avatar/shoe/136.svg

<svg xmlns:xlink="http://www.w3.org/1999/xlink" height="38.3" width="36.05" xmlns="http://www.w3.org/2000/svg"><use height="18.7" transform="translate(12.6 11.7)" width="20.65" xlink:href="#a"/><defs><g id="a" fill-rule="evenodd"><path d="M7.65 1.25Q5.4-.35-2.45 3.7-6.4 5.75-9.9 8.1l-.9 1.3q-.75 1.65-.15 2.9.05 1.25 1.6 1.65 4.2 2.4 10.05 1.2 4-.95 5.6-3.7Q6.8 9.75 8 9q3.1-5.1-.35-7.75" fill="#1e0114" transform="translate(11.2 3.15)"/><path d="M7.6 1.95Q6.15.75-2.2 4.85l-8.05 4.3-.25 1.75q-.05 1.85.9 2.6 5.25 2.55 10.5.85 3.5-1.05 4.75-3.3.45-1.5 1.7-2.65Q10.1 4 7.6 1.95" fill="#9e0459" transform="translate(11.2 3.15)"/><path d="m8.5 4.6.05-1.15q-.2 1.9-2.35 3.8-.7.5-1.15 2.05L3.4 11.55q-4.3 2.55-10 1.4-4.05-1-3.6-3.7-1.35 3.6 3.8 4.25 2.65.65 5.9.05l2.7-.7Q4.05 12 5 10.6l1.6-3.1q1.6-1.35 1.9-2.9" fill="#49022c" transform="translate(11.2 3.15)"/><path d="M7.6 1.95Q6.2.9-1.9 4.2l-7.7 3.4v.05q-2.55 4.2 2.95 5.3 5.6.95 8.75-.8 1.8-.5 2.95-2.8.35-1.6 1.15-2.05.95-.7 1.7-1.85 1.4-2.15-.3-3.5" fill="#ff2995" transform="translate(11.2 3.15)"/><path d="m1.1-3.15-2.6.3Q-4.25-2.1-5.3.1l-1.3 3.05-2.85 4q-.9 1.65-.55 2.55.95 2.15 4.4 1.95 2.1 1.65 5.25.4 3.8-.2 5.65-4.85l1.5-1.4Q9.1 3 6.5-1.4l-.9-.75q-1.5-.8-4.5-1" fill="#21100a" transform="translate(11.2 3.15)"/><path d="M-1.95-1.85q-2 .7-3.05 2.9l-.6 1.9q-.4 1.2-1.2 2.1-1.35 1.5-2.1 2.75-1 3.1 1.7 3.05 1.3.25 2.25-.55.6 2.65 5.85.55 2.85-1.2 3.5-3.8 2.3-1.8 2.8-4.1 0-1.6-.95-2.95Q4.4-2.85-.2-2.1l-1.75.25" fill="#c98036" transform="translate(11.2 3.15)"/><path d="m-5.15 10.75.5.35q-.75-.75-.45-3.55-1.1 1.3-.05 3.2" fill="#21100a" transform="translate(11.2 3.15)"/><path d="m-5.45 9.85.3-1.95-.6-.45q-.65.35.3 2.4" fill="#21100a" transform="translate(11.2 3.15)"/><path d="M6-.3q-.75-1.2-2.6-1.75l-1.75-.3Q-1.8-2.4-3.4-1.1-5.7.9 6-.3m.75 1.55L5.5 3.6Q4.1 5.95 3.3 6.15l-.2.1L1 8.55q-.4 1.2-.15.2-2.5 1.5-4.2.4-.45 1.95.55 2.1 4.8.8 7.2-4.35l2.4-3.25q.65-1.5-.05-2.4" fill="#965112" transform="translate(11.2 3.15)"/><path d="m2.6 8.4 2.7-3.8-.85.55Q1.15 6.6 1 8.55l-.75 1H1L2.6 8.4m-8.45.25q-1.95 1.8-3.25 1.1.65 2.05 3.8.75l-.55-1.85" fill="#965112" transform="translate(11.2 3.15)"/><path d="M3.3 10.5q1-.45 1.4-1.4l.25-.9Q1.9 4.55-1.55 4.5q-1.75 0-2.8.65-1.5-.9-2.95-.85l-1.15.2q-1.2.15-.7 2.25.9-.5 2.5.45.85.45 1.5 1 1.35-1.75 5.05.05l3.4 2.25" fill="#1e0114" transform="translate(11.2 3.15)"/><path d="M.4 7.95q1.65 1 2.9 2.25.9-.35 1.15-1.2l.15-.75q-2.9-3.2-6.25-3.3-1.7 0-2.85.6-.6-.65-2.1-.8h-1.35q-.8.4-.95 1.65.8-.4 2.4.35l1.35.9Q-3 6.1.4 7.95" fill="#ff2995" transform="translate(11.2 3.15)"/><path d="M-9.2 6.6q-.1.45.3.45l.5-.45h-.8" fill="#1e0114" transform="translate(11.2 3.15)"/><path d="M4.5 8.4 2.95 6.75l-4.6.15L3.3 9.95q.7-.1 1.05-.85l.15-.7m-9-2.95q-1.35 1.4-1.8.85l-1.55.05 1.1.4 1.6.85.65-2.15" fill="#9e0459" transform="translate(11.2 3.15)"/><path d="m-5.6 5.55-.5-.4-1.55-.25-.85.55-.1.3q.2-.3.75-.5.95-.35 2.25.3m1.4.4q1.3-.55 2.7-.45l1.2.2-.4-.5q-1.55-.4-3.5.75" fill="#fff" transform="translate(11.2 3.15)"/></g></defs></svg>

<?xml version="1.0" encoding="UTF-8" standalone="no"?>
<svg xmlns:xlink="http://www.w3.org/1999/xlink" height="38.3px" width="36.05px" xmlns="http://www.w3.org/2000/svg">
  <g transform="matrix(1.0, 0.0, 0.0, 1.0, 23.8, 14.85)">
    <use height="18.7" transform="matrix(1.0, 0.0, 0.0, 1.0, -11.2, -3.15)" width="20.65" xlink:href="#shape0"/>
  </g>
  <defs>
    <g id="shape0" transform="matrix(1.0, 0.0, 0.0, 1.0, 11.2, 3.15)">
      <path d="M7.65 1.25 Q5.4 -0.35 -2.45 3.7 -6.4 5.75 -9.9 8.1 L-10.8 9.4 Q-11.55 11.05 -10.95 12.3 -10.9 13.55 -9.35 13.95 -5.15 16.35 0.7 15.15 4.7 14.2 6.3 11.45 6.8 9.75 8.0 9.0 11.1 3.9 7.65 1.25" fill="#1e0114" fill-rule="evenodd" stroke="none"/>
      <path d="M7.6 1.95 Q6.15 0.75 -2.2 4.85 L-10.25 9.15 -10.5 10.9 Q-10.55 12.75 -9.6 13.5 -4.35 16.05 0.9 14.35 4.4 13.3 5.65 11.05 6.1 9.55 7.35 8.4 10.1 4.0 7.6 1.95" fill="#9e0459" fill-rule="evenodd" stroke="none"/>
      <path d="M8.5 4.6 L8.55 3.45 Q8.35 5.35 6.2 7.25 5.5 7.75 5.05 9.3 L3.4 11.55 Q-0.9 14.1 -6.6 12.95 -10.65 11.95 -10.2 9.25 -11.55 12.85 -6.4 13.5 -3.75 14.15 -0.5 13.55 L2.2 12.85 Q4.05 12.0 5.0 10.6 L6.6 7.5 Q8.2 6.15 8.5 4.6" fill="#49022c" fill-rule="evenodd" stroke="none"/>
      <path d="M7.6 1.95 Q6.2 0.9 -1.9 4.2 L-9.6 7.6 -9.6 7.65 Q-12.15 11.85 -6.65 12.95 -1.05 13.9 2.1 12.15 3.9 11.65 5.05 9.35 5.4 7.75 6.2 7.3 7.15 6.6 7.9 5.45 9.3 3.3 7.6 1.95" fill="#ff2995" fill-rule="evenodd" stroke="none"/>
      <path d="M1.1 -3.15 L-1.5 -2.85 Q-4.25 -2.1 -5.3 0.1 L-6.6 3.15 -9.45 7.15 Q-10.35 8.8 -10.0 9.7 -9.05 11.85 -5.6 11.65 -3.5 13.3 -0.35 12.05 3.45 11.85 5.3 7.2 L6.8 5.8 Q9.1 3.0 6.5 -1.4 L5.6 -2.15 Q4.1 -2.95 1.1 -3.15" fill="#21100a" fill-rule="evenodd" stroke="none"/>
      <path d="M-1.95 -1.85 Q-3.95 -1.15 -5.0 1.05 L-5.6 2.95 Q-6.0 4.15 -6.8 5.05 -8.15 6.55 -8.9 7.8 -9.9 10.9 -7.2 10.85 -5.9 11.1 -4.95 10.3 -4.35 12.95 0.9 10.85 3.75 9.65 4.4 7.05 6.7 5.25 7.2 2.95 7.2 1.35 6.25 0.0 4.4 -2.85 -0.2 -2.1 L-1.95 -1.85" fill="#c98036" fill-rule="evenodd" stroke="none"/>
      <path d="M-5.15 10.75 L-4.65 11.1 Q-5.4 10.35 -5.1 7.55 -6.2 8.85 -5.15 10.75" fill="#21100a" fill-rule="evenodd" stroke="none"/>
      <path d="M-5.45 9.85 L-5.15 7.9 -5.75 7.45 Q-6.4 7.8 -5.45 9.85" fill="#21100a" fill-rule="evenodd" stroke="none"/>
      <path d="M6.0 -0.3 Q5.25 -1.5 3.4 -2.05 L1.65 -2.35 Q-1.8 -2.4 -3.4 -1.1 -5.7 0.9 6.0 -0.3" fill="#965112" fill-rule="evenodd" stroke="none"/>
      <path d="M6.75 1.25 L5.5 3.6 Q4.1 5.95 3.3 6.15 L3.1 6.25 1.0 8.55 Q0.6 9.75 0.85 8.75 -1.65 10.25 -3.35 9.15 -3.8 11.1 -2.8 11.25 2.0 12.05 4.4 6.9 L6.8 3.65 Q7.45 2.15 6.75 1.25" fill="#965112" fill-rule="evenodd" stroke="none"/>
      <path d="M2.6 8.4 L5.3 4.6 4.45 5.15 Q1.15 6.6 1.0 8.55 L0.25 9.55 1.0 9.55 2.6 8.4" fill="#965112" fill-rule="evenodd" stroke="none"/>
      <path d="M-5.85 8.65 Q-7.8 10.45 -9.1 9.75 -8.45 11.8 -5.3 10.5 L-5.85 8.65" fill="#965112" fill-rule="evenodd" stroke="none"/>
      <path d="M3.3 10.5 Q4.3 10.05 4.7 9.1 L4.95 8.2 Q1.9 4.55 -1.55 4.5 -3.3 4.5 -4.35 5.15 -5.85 4.25 -7.3 4.3 L-8.45 4.5 Q-9.65 4.65 -9.15 6.75 -8.25 6.25 -6.65 7.2 -5.8 7.65 -5.15 8.2 -3.8 6.45 -0.1 8.25 L3.3 10.5" fill="#1e0114" fill-rule="evenodd" stroke="none"/>
      <path d="M0.4 7.95 Q2.05 8.95 3.3 10.2 4.2 9.85 4.45 9.0 L4.6 8.25 Q1.7 5.05 -1.65 4.95 -3.35 4.95 -4.5 5.55 -5.1 4.9 -6.6 4.75 L-7.95 4.75 Q-8.75 5.15 -8.9 6.4 -8.1 6.0 -6.5 6.75 L-5.15 7.65 Q-3.0 6.1 0.4 7.95" fill="#ff2995" fill-rule="evenodd" stroke="none"/>
      <path d="M-9.2 6.6 Q-9.3 7.05 -8.9 7.05 L-8.4 6.6 -9.2 6.6" fill="#1e0114" fill-rule="evenodd" stroke="none"/>
      <path d="M4.5 8.4 L2.95 6.75 -1.65 6.9 3.3 9.95 Q4.0 9.85 4.35 9.1 L4.5 8.4" fill="#9e0459" fill-rule="evenodd" stroke="none"/>
      <path d="M-4.5 5.45 Q-5.85 6.85 -6.3 6.3 L-7.85 6.35 -6.75 6.75 -5.15 7.6 -4.5 5.45" fill="#9e0459" fill-rule="evenodd" stroke="none"/>
      <path d="M-5.6 5.55 L-6.1 5.15 -7.65 4.9 -8.5 5.45 -8.6 5.75 Q-8.4 5.45 -7.85 5.25 -6.9 4.9 -5.6 5.55" fill="#ffffff" fill-rule="evenodd" stroke="none"/>
      <path d="M-4.2 5.95 Q-2.9 5.4 -1.5 5.5 L-0.3 5.7 -0.7 5.2 Q-2.25 4.8 -4.2 5.95" fill="#ffffff" fill-rule="evenodd" stroke="none"/>
    </g>
  </defs>
</svg>
